X:1
T:Baby Slumbers
T:Baby Slumbers
T:Paul Dresser
C:Paul Dresser
%%score 1 { ( 2 5 ) | ( 3 4 ) }
L:1/8
Q:1/4=130
M:3/4
K:G
V:1 treble-8 nm="Voice"
V:2 treble nm="Piano"
V:5 treble 
V:3 bass 
V:4 bass 
V:1
"^Moderato" z6 | z6 | z6 | z6 | z6 | z6 | z6 | z6 | z6 | z6 | z6 | z6 | z6 | z6 | z6 | z6 | z6 | %17
w: |||||||||||||||||
w: |||||||||||||||||
 z6 | z6 | z4 ||!mp! D2 | D2 E2 F2 | G2 d3 B | c2 F4- | F2 z2 D-D | D2 F2 A2 | c2- c2 c2 | B6- | %28
w: |||1.   |Close your eyes,|my ba- by|dar- ling,|_ My *|lit- tle one|should * not|weep,|
w: |||2. Now|you think that|you're a smart|Ba- by,|_ But you've|got one eye|o- pen, I|see,|
 B2 z2 G2 | A4 G2 | (E2 F2) G2 | F2 F2 F2 | D4 D-D | E2- E2 E2 | A,2- A,2 A2 | D6- | D2 z2 D2 | %37
w: _ Ma-|ma, she|can- * not|come here just|now, So *|Ba- * by,|go _ to|sleep.|_ Now|
w: _ You|on- ly|make be- lieve|that you sleep,|love, But, you|ras- cal, you|can- not fool|me,|_ For|
 D2 E2 F2 | G2 d3 B | c2 F4- | F2 z2 D2 | D2 F2 A2 | c4 c2 | B2- B2- B2- | B2 z2 B2 | B4 B2 | %46
w: why are you|cry- ing for|Ma- ma?|_ She|can- not come|now, my|Ba- * by|dear, So|close your|
w: I have been|watch- ing you,|dar- ling,|_ Un-|til I've near|got a|head- ache, _|_ And|ev- 'ry|
 (A2 A2) A2 | G4- G2 | !fermata!G4 _E2 | D2 B2 B2 | B2- B2 A2 | G6- | G4 ||1 %53
w: eyes _ and|slum- ber,|love, And|Pa- pa will|watch * right|here.|_|
w: time I turn|round, _|love, I|find my sweet|Ba- by a-|wake.|_|
"^First Chorus or Refrain" D2 | D2 E2 F2 | G4 d2 | c6 | F2 z2 D2 | D2 D2 D2 | (D2 c2) c2 | B6- | %61
w: Oh,|don't you cry,|Ba- by|dar-|ling, Oh,|don't you cry,|lit- * tle|dear,|
w: ||||||||
 B2 z2 B2 | A2 A2 A2 | E2 F2 G2 | F6 | D4 D2 | E2 E2 E2 | A,4 A2 | D6-[Q:1/4=120][Q:1/4=110] | %69
w: _ I|want you to|give me a|kiss,|love, And|Pa- pa will|watch right|here.|
w: ||||||||
 D4 D2 |[Q:1/4=130] D2 E2 F2 | G4 d2 | c6 | F2 z2 D2 | D2 D2 D2 | D2 c4 | B6- | B2 z2 B2 | %78
w: _ Now|don't you cry,|Ba- by|dar-|ling, Oh,|don't you cry,|lit- tle|one,|_ I|
w: |||||||||
 B2 B2 B2 | A2 A2 A2 | G6 | !fermata!E4 _E2 | D2 B2 B2 | B4 A2 | G6- | G2 z2 :|2 %86
w: want you to|give me a|kiss,|love, And|Pa- pa will|stay right|here.|_|
w: ||||||||
"^Second Chorus or Refrain" D2 | D2 E2 F2 || G2 G2 D2 | E2 D4- | D2 z2 D2 | D2 ^C2 D2 | E4 D2 | %93
w: Now|don't you talk|back to your|fa- ther,|_ Now|don't you talk|back to|
w: |||||||
 D6- | D2 z2 D2 | D2 E2 F2 | G2 G2 D2 | E2 E2 D2 | D2 z2 DD | D2 D2 D2 | E2 E2 D2 | D6- | %102
w: me,|_ I'll|lick you to|death with a|lem- on- ade|stick If you|ev- er get|sass- y to|me.|
w: |||||||||
 D2 z2 D2 |!pp!"^Slower"[Q:1/4=115] D2 D2 D2 | D4 D2 | E2 D4- | D2 z2 D2 | D2 ^C2 D2 | E4 D2 | %109
w: _ Hush!|ev- 'ry one,|make no|noise now,|_ The|Ba- by breathes|hard and|
w: |||||||
 D6- | D2 z2 z2 | D2 D2 D2 | D2 D2 D2 | E2 E2 D2 | D4 z2 | D2 D2[Q:1/4=105] D2 | %116
w: deep,|_|Ev- 'ry one|step just as|light as you|can,|Now my sweet|
w: |||||||
 E2[Q:1/4=90] E2 D2 |[Q:1/4=70] G6- | G4 |] %119
w: Ba- by's a-|sleey!|_|
w: |||
V:2
!f! !arpeggio![dfd']4 !arpeggio![dfc']2 | !arpeggio![dgb]4 z2 | !arpeggio![Bfb]4 !arpeggio![Bfa]2 | %3
 !arpeggio![Beg]4 z2 | [^Ag]4 [Ag]2 | [Bg]4 [db]2 | (a2 b2) a2 | (a2 b2 c'2) | %8
 !arpeggio![dfd']4 !arpeggio![dfc']2 | !arpeggio![dgb]4 z2 | !arpeggio![Bfb]4 !arpeggio![Bfa]2 | %11
 !arpeggio![Beg]4 z2 | [^Ag]4 [Ag]2 | [Bg]4 [db]2 | [ca]2 [db]2 [ca]2 | [Bg]4"_dim." [c_eg]2 | %16
 [Bdg]4 [c_eg]2 | [Bdg]4"_morendo." [C_EG]2 | [B,DG]4 [C_EG]2 | [B,DG]4 || z2 | %21
!p! z2 [G,B,D]2 [G,B,D]2 | z2 [B,G]2 [B,G]2 | z2 [CDF]2 [CDF]2 | z2 [CDF]2 [CDF]2 | %25
 z2 [A,DF]2 [A,DF]2 | z2 [A,DF]2 [A,DF]2 | z2 [B,DG]2 [B,DG]2 | z2 [B,DG]2 [B,DG]2 | %29
 z2 [A,^CG]2 [A,CG]2 | z2 [A,^CG]2 [A,CG]2 | z2 [A,DF]2 [A,DF]2 | z2 [B,DF]2 [B,DF]2 | %33
 z2 [B,DE]2 [B,DE]2 | z2 [^CE]2 [CA]2 | z2 [DF]2 [DFA]2 | c2 B2 A2 | z2 [G,B,D]2 [G,B,D]2 | %38
 z2 [B,G]2 [B,G]2 | z2 [CDF]2 [CDF]2 | z2 [CDF]2 [CDF]2 | z2 [A,DF]2 [A,DF]2 | z2 [A,DF]2 [A,DF]2 | %43
 z2 [B,DG]2 [B,DG]2 | z2 [B,DG]2 [B,DG]2 | z2 [DB]2 [DB]2 | z2 [B,^DA]2 [B,DA]2 | %47
 z2 [B,EG]2 [B,EG]2 | !fermata![CEG]4 [G,_B,_E]2 | z2 [B,D]2 [DB]2 | z2 [DB]2 [CA]2 | z2 D2 B2 | %52
 G4 ||1!p! z2 | (B,D GB GD) | (B,D GB GD) | (CD FA FD) | (CD FA FD) | (CD FA FD) | (CD FA FD) | %60
 (B,D GB GD) | (B,D GB GD) | (A,E GA GA,) | (EA, FA, GA,) | (FA, DF AF) | (DB, DF BF) | %66
 (EB, EG BG) | (E^C EG AG) | (F!<(!D FA"_rall." d^c)!<)! | (e!>(!d =cA FD)!>)! | %70
!p!"^a tempo" (B,D GB GD) | (B,D GB GD) | (CD FA FD) | (CD FA FD) | (CD FA FD) | (CD FA FD) | %76
 (B,D GB GD) | (B,D GB GD) | (B,F AB AF) | (B,F AB AF) | (B,E GB GE) | !fermata![CEG]4 [_B,_EG]2 | %82
 (=B,D BD BD) | (B,D BD AC) | (GB, DB GD | [B,G]2) z2 :|2!p! z2 | z2 [B,D]2 [B,D]2 || %88
 z2 [B,G]2 [B,D]2 | z2 [F,D]2 [F,D]2 | z2 [F,D]2 [F,D]2 | z2 [F,^C]2 [F,D]2 | z2 [F,E]2 [F,D]2 | %93
 z2 [G,B,D]2 [G,B,D]2 | z2 [G,B,D]2 [G,B,D]2 | z2 [B,D]2 [B,D]2 | z2 [B,G]2 [B,D]2 | %97
 z2 [F,E]2 [F,D]2 | z2 [F,D]2 [F,D]2 | z2 [A,CD]2 [A,CD]2 | z2 [A,CE]2 [A,CD]2 | %101
 z2 [G,B,D]2 [G,B,D]2 | z2 [G,B,D]2 d2 |!pp!{/b} d2{/b} e2{/b} f2 |{/b} g4{/b} d2 | %105
{/c'} e2{/c'} d4- | d2 z2{/c'} d2 |{/c'} d2{/c'} ^c2{/=c'} d2 |{/c'} e4{/b} d2 |{/b} d6- | %110
 d2 z2{/b} d2 |{/b} d2{/b} e2{/b} f2 |{/b} g4{/b} d2 |{/c'} e2{/c'} e2{/c'} d2 |{/c'} d4{/c'} d2 | %115
{/c'} d2"_dim.    e    rall."{/c'} d2{/c'} d2 |{/c'} e2{/c'} e2{/c'} d2 |{/b} d2{/b} d2{/b} d2 | %118
{/g} B4 |] %119
V:3
 A,2 [DF]2 [DF]2 | G,2 [DG]2 [DG]2 | F,2 [B,^D]2 [B,D]2 | E,2 [G,B,E]2 [G,B,E]2 | %4
 E,2 [G,^C]2 [G,C]2 | D,2 [G,B,D]2 [G,B,D]2 | E,2 [G,A,]2 [G,A,]2 | D,2 [F,A,]2 [F,A,]2 | %8
 A,2 [DF]2 [DF]2 | G,2 [DG]2 [DG]2 | F,2 [B,^D]2 [B,D]2 | E,2 [G,B,E]2 [G,B,E]2 | %12
 E,2 [G,^C]2 [G,C]2 | D,2 [G,B,D]2 [G,B,D]2 | D,2 [F,A,D]2 [F,A,D]2 | (G,,2 G,2 C,2) | %16
 (G,,2 G,2 C,2) | (G,,2 G,2 C,2) | (G,,2 G,2 C,2) | G,,4 || z2 | G,,4 z2 | D,4 z2 | A,,4 z2 | %24
 D,4 z2 | D,,4 z2 | D,4 z2 | G,,4 z2 | G,4 z2 | E,4 z2 | A,,4 z2 | D,4 z2 | B,,4 z2 | ^G,,4 z2 | %34
 A,,4 z2 | D,4 z2 | D,,6 | G,,4 z2 | D,4 z2 | A,,4 z2 | D,4 z2 | D,,4 z2 | D,4 z2 | G,,4 z2 | %44
 G,4 z2 | [G,,G,]6 | [F,,F,]6 | [E,,E,]6 | !fermata![C,,C,]4 [^C,,^C,]2 | [D,,D,]6 | [D,F,]6 | %51
 G,4 D,2 | G,,4 ||1 z2 | (G,,6 | D,6) | (A,,6 | D,6) | (D,,6 | D,6) | (G,,6 | D,6) | ^C,6 | A,,6 | %64
 D,6 | B,,6 | G,,6 | A,,6 | D,,4 A,,2 | D,4 z2 | (G,,6 | D,6) | (A,,6 | D,6) | (D,,6 | D,6) | %76
 (G,,6 | D,6) | ^D,6 | B,,6 | E,6 | !fermata!C,4 ^C,2 | D,6 | D,,4 D,2 | (G,,4 D,2 | G,2) z2 :|2 %86
 z2 | G,,4 z2 || D,4 z2 | A,,4 z2 | D,4 z2 | D,,4 z2 | D,4 z2 | G,,4 z2 | D,4 z2 | G,,4 z2 | %96
 D,4 z2 | A,,4 z2 | D,4 z2 | D,,4 z2 | D,4 z2 | G,,4 D,2 | G,,4 z2 | G,,2 [D,G,B,]2 [D,G,B,]2 | %104
 G,,2 [D,G,B,]2 [D,G,B,]2 | D,2 [F,A,C]2 [F,A,C]2 | D,2 [F,A,C]2 [F,A,C]2 | D,2 [F,A,C]2 [F,A,C]2 | %108
 D,2 [F,A,C]2 [F,A,C]2 | G,,2 [D,G,B,]2 [D,G,B,]2 | G,,2 [D,G,B,]2 [D,G,B,]2 | %111
 G,,2 [D,G,B,]2 [D,G,B,]2 | G,,2 [D,G,B,]2 [D,G,B,]2 | D,2 [F,A,C]2 [F,A,C]2 | %114
 D,2 [F,A,C]2 [F,A,C]2 | D,2 [F,A,C]2 [F,A,C]2 | D,2 [F,A,C]2 [F,A,C]2 | [G,B,]2 G,2 D,2 | G,,4 |] %119
V:4
 A,6 | G,6 | F,6 | E,6 | E,6 | D,6 | E,6 | D,6 | A,6 | G,6 | F,6 | E,6 | E,6 | D,6 | D,6 | x6 | %16
 x6 | x6 | x6 | x4 || x2 | x6 | x6 | x6 | x6 | x6 | x6 | x6 | x6 | x6 | x6 | x6 | x6 | x6 | x6 | %35
 x6 | x6 | x6 | x6 | x6 | x6 | x6 | x6 | x6 | x6 | x6 | x6 | x6 | x6 | x6 | x6 | x6 | x4 ||1 x2 | %54
 x6 | x6 | x6 | x6 | x6 | x6 | x6 | x6 | x6 | x6 | x6 | x6 | x6 | x6 | x6 | x6 | x6 | x6 | x6 | %73
 x6 | x6 | x6 | x6 | x6 | x6 | x6 | x6 | x6 | x6 | x6 | x6 | x4 :|2 x2 | x6 || x6 | x6 | x6 | x6 | %92
 x6 | x6 | x6 | x6 | x6 | x6 | x6 | x6 | x6 | x6 | x6 | x6 | x6 | D,6 | D,6 | D,6 | D,6 | x6 | x6 | %111
 x6 | x6 | D,6 | D,6 | D,6 | D,6 | x6 | x4 |] %119
V:5
 x6 | x6 | x6 | x6 | x6 | x6 | ^c4 c2 | c6 | x6 | x6 | x6 | x6 | x6 | x6 | x6 | x6 | x6 | x6 | x6 | %19
 x4 || x2 | x6 | x6 | x6 | x6 | x6 | x6 | x6 | x6 | x6 | x6 | x6 | x6 | x6 | x6 | x6 | [DF]6 | x6 | %38
 x6 | x6 | x6 | x6 | x6 | x6 | x6 | x6 | x6 | x6 | x6 | x6 | x6 | x2 B,4- | B,4 ||1 x2 | x6 | x6 | %56
 x6 | x6 | x6 | x6 | x6 | x6 | x6 | x6 | x6 | x6 | x6 | x6 | x6 | x6 | x6 | x6 | x6 | x6 | x6 | %75
 x6 | x6 | x6 | x6 | x6 | x6 | x6 | x6 | x6 | x6 | x4 :|2 x2 | x6 || x6 | x6 | x6 | x6 | x6 | x6 | %94
 x6 | x6 | x6 | x6 | x6 | x6 | x6 | x6 | x6 | x6 | x6 | x6 | x6 | x6 | x6 | x6 | x6 | x6 | x6 | %113
 x6 | x6 | x6 | x6 | x6 | x4 |] %119

